public/images/hashed/e122162e37ec3c19cd1fdcd95f5907d8.svg

<?xml version="1.0" encoding="UTF-8"?>
<svg width="80px" height="80px" viewBox="0 0 80 80" version="1.1" xmlns="http://www.w3.org/2000/svg" xmlns:xlink="http://www.w3.org/1999/xlink">
    <!-- Generator: Sketch 64 (93537) - https://sketch.com -->
    <title>Icon-Architecture/64/Arch_AWS-SageMaker_64</title>
    <desc>Created with Sketch.</desc>
    <defs>
        <linearGradient x1="0%" y1="100%" x2="100%" y2="0%" id="linearGradient-1">
            <stop stop-color="#055F4E" offset="0%"></stop>
            <stop stop-color="#56C0A7" offset="100%"></stop>
        </linearGradient>
    </defs>
    <g id="Icon-Architecture/64/Arch_AWS-SageMaker_64" stroke="none" stroke-width="1" fill="none" fill-rule="evenodd">
        <g id="Icon-Architecture-BG/64/Machine-Learning" fill="url(#linearGradient-1)">
            <rect id="Rectangle" x="0" y="0" width="80" height="80"></rect>
        </g>
        <path d="M54.034,26.0335731 C54.034,26.5935654 53.578,27.0495592 53.017,27.0495592 C52.458,27.0495592 52.002,26.5935654 52.002,26.0335731 C52.002,25.4735807 52.458,25.0175869 53.017,25.0175869 C53.578,25.0175869 54.034,25.4735807 54.034,26.0335731 L54.034,26.0335731 Z M48.002,36.000437 C48.002,35.4494445 48.45,35.0004506 49.002,35.0004506 C49.554,35.0004506 50.002,35.4494445 50.002,36.000437 C50.002,36.5514294 49.554,37.0004233 49.002,37.0004233 C48.45,37.0004233 48.002,36.5514294 48.002,36.000437 L48.002,36.000437 Z M48.002,55.0001775 C48.002,54.449185 48.45,54.0001912 49.002,54.0001912 C49.554,54.0001912 50.002,54.449185 50.002,55.0001775 C50.002,55.55117 49.554,56.0001639 49.002,56.0001639 C48.45,56.0001639 48.002,55.55117 48.002,55.0001775 L48.002,55.0001775 Z M58.002,42.000355 C58.002,42.5513475 57.554,43.0003414 57.002,43.0003414 C56.45,43.0003414 56.002,42.5513475 56.002,42.000355 C56.002,41.4493626 56.45,41.0003687 57.002,41.0003687 C57.554,41.0003687 58.002,41.4493626 58.002,42.000355 L58.002,42.000355 Z M65,45.2723104 L59.963,42.3823498 C59.979,42.2563515 60.002,42.1313532 60.002,42.000355 C60.002,40.3463776 58.656,39.000396 57.002,39.000396 C55.347,39.000396 54.002,40.3463776 54.002,42.000355 C54.002,43.6543324 55.347,45.0003141 57.002,45.0003141 C57.801,45.0003141 58.523,44.6813184 59.061,44.1713254 L63.886,46.9392876 L59.555,49.105258 C59.216,49.2752557 59.002,49.621251 59.002,50.0002458 L59.002,58.4411305 L46.983,65.8370295 L41.003,62.4200762 L41.003,56.0001639 L46.186,56.0001639 C46.6,57.161148 47.7,58.0001366 49.002,58.0001366 C50.656,58.0001366 52.002,56.6541549 52.002,55.0001775 C52.002,53.3452001 50.656,52.0002185 49.002,52.0002185 C47.7,52.0002185 46.6,52.838207 46.186,54.0001912 L41.003,54.0001912 L41.003,40.0003823 C41.003,39.6493871 40.818,39.3233916 40.517,39.1423941 L35.516,36.142435 L34.487,37.8574116 L39.003,40.5663746 L39.003,43.5073345 L33.002,48.1232714 L33.002,44.0003277 C33.002,43.6963319 32.864,43.4083358 32.627,43.2193384 L28.002,39.5193889 L28.002,34.535457 L33.556,30.8325075 C33.835,30.6465101 34.002,30.3345143 34.002,30.0005189 L34.002,24.0006008 L32.002,24.0006008 L32.002,29.4655262 L27.013,32.7904808 L22.002,29.4635262 L22.002,21.5746339 L27.002,18.6586738 L27.002,27.0005599 L29.002,27.0005599 L29.002,17.4916897 L33.005,15.1567216 L39.001,18.6156744 L39.002,31.0005052 C39.002,31.3595003 39.194,31.6904958 39.506,31.8684934 L46.042,35.6034424 C46.024,35.7344406 46.002,35.8644388 46.002,36.000437 C46.002,37.6544144 47.347,39.000396 49.002,39.000396 C50.656,39.000396 52.002,37.6544144 52.002,36.000437 C52.002,34.3464595 50.656,33.0004779 49.002,33.0004779 C48.208,33.0004779 47.49,33.3154736 46.953,33.8204667 L41.002,30.4195132 L41.001,18.6176743 L46.964,15.1767213 L58.002,22.5356208 L58.002,25.0005872 L55.851,25.0005872 C55.429,23.844603 54.318,23.0176142 53.017,23.0176142 C51.354,23.0176142 50.002,24.3705958 50.002,26.0335731 C50.002,27.6965504 51.354,29.0495319 53.017,29.0495319 C54.343,29.0495319 55.471,28.1905436 55.875,27.0005599 L58.002,27.0005599 L58.002,30.0005189 C58.002,30.359514 58.194,30.6905095 58.506,30.868507 L65,34.5804564 L65,45.2723104 Z M33.02,65.8370295 L29.867,63.897056 L35.583,59.8141118 L34.421,58.186134 L28.018,62.7590716 L21.002,58.4411305 L21.002,50.5662381 L25.516,47.8572751 L24.487,46.1422985 L19.958,48.8602614 L15.002,46.3822952 L15.001,40.6173739 L20.449,37.8944111 L19.555,36.1054355 L15.001,38.3814044 L15.002,34.5804564 L20.963,31.1745029 L26.002,34.5194572 L26.002,39.4803894 L20.449,43.1673391 L21.555,44.8333163 L26.958,41.2453653 L31.002,44.4803212 L31.002,49.6622504 L26.392,53.207202 L27.611,54.7921804 L39.003,46.0303 L39.003,62.4190762 L33.02,65.8370295 Z M66.496,33.1324761 L60.002,29.4205268 L60.002,22.0006281 C60.002,21.6656327 59.835,21.353637 59.556,21.1686395 L47.556,13.1687487 C47.24,12.9587516 46.832,12.9447518 46.502,13.1347492 L40.004,16.884698 L33.502,13.1347492 C33.19,12.9547517 32.807,12.9547517 32.498,13.1367492 L20.498,20.1366536 C20.19,20.3156511 20.002,20.6446466 20.002,21.0006418 L20.002,29.4205268 L13.506,33.1324761 C13.194,33.3094737 13.002,33.6414692 13.002,34.0004643 L13.002,34.4174586 C13.001,34.4384583 13,34.458458 13,34.4794577 L13,45.3633091 C13,45.3833088 13.001,45.4033086 13.002,45.4223083 L13.002,47.0002868 C13.002,47.3792816 13.216,47.7252769 13.555,47.8942745 L19.002,50.6182374 L19.002,59.0001229 C19.002,59.3471182 19.181,59.6691138 19.477,59.8511113 L32.477,67.851002 C32.638,67.9500007 32.82,68 33.002,68 C33.173,68 33.344,67.9560006 33.498,67.8680018 L40.003,64.1520525 L46.506,67.8680018 C46.821,68.0489993 47.213,68.0419994 47.526,67.851002 L60.526,59.8511113 C60.822,59.6691138 61.002,59.3471182 61.002,59.0001229 L61.002,50.6182374 L66.447,47.8942745 C66.786,47.7252769 67,47.3792816 67,47.0002868 L67,34.0004643 C67,33.6414692 66.807,33.3104737 66.496,33.1324761 L66.496,33.1324761 Z" id="AWS-SageMaker_Icon_64_Squid" fill="#FFFFFF"></path>
    </g>
</svg>

<svg xmlns="http://www.w3.org/2000/svg" width="80" height="80"><defs><linearGradient id="a" x1="0%" x2="100%" y1="100%" y2="0%"><stop offset="0%" stop-color="#055F4E"/><stop offset="100%" stop-color="#56C0A7"/></linearGradient></defs><g fill="none" fill-rule="evenodd"><path fill="url(#a)" d="M0 0h80v80H0z"/><path fill="#FFF" d="M54.034 26.034a1.017 1.017 0 1 1-1.017-1.016c.561 0 1.017.456 1.017 1.016ZM48.002 36a1.001 1.001 0 0 1 2 0 1.001 1.001 0 0 1-2 0Zm0 19a1.001 1.001 0 0 1 2 0 1.001 1.001 0 0 1-2 0Zm10-13a1.001 1.001 0 0 1-2 0 1.001 1.001 0 0 1 2 0ZM65 45.272l-5.037-2.89c.016-.126.039-.25.039-.382 0-1.654-1.346-3-3-3-1.655 0-3 1.346-3 3s1.345 3 3 3c.799 0 1.521-.319 2.059-.829l4.825 2.768-4.331 2.166c-.339.17-.553.516-.553.895v8.441l-12.019 7.396-5.98-3.417V56h5.183a2.996 2.996 0 0 0 2.816 2c1.654 0 3-1.346 3-3 0-1.655-1.346-3-3-3a2.995 2.995 0 0 0-2.816 2h-5.183V40c0-.35-.185-.677-.486-.858l-5.001-3-1.029 1.715 4.516 2.71v2.94l-6.001 4.616V44a1 1 0 0 0-.375-.78l-4.625-3.7v-4.985l5.554-3.702a1 1 0 0 0 .446-.832v-6h-2v5.465l-4.989 3.324-5.011-3.326v-7.89l5-2.915V27h2v-9.51l4.003-2.334 5.996 3.459L39.002 31c0 .359.192.69.504.867l6.536 3.735c-.018.131-.04.261-.04.397 0 1.654 1.345 3 3 3 1.654 0 3-1.346 3-3s-1.346-3-3-3c-.794 0-1.512.315-2.049.82l-5.951-3.4-.001-11.802 5.963-3.441 11.038 7.359V25h-2.151a3.02 3.02 0 0 0-2.834-1.983 3.019 3.019 0 0 0-3.015 3.016 3.019 3.019 0 0 0 3.015 3.016A3.022 3.022 0 0 0 55.875 27h2.127v3c0 .36.192.69.504.869L65 34.58v10.692ZM33.02 65.837l-3.153-1.94 5.716-4.083-1.162-1.628-6.403 4.573-7.016-4.318v-7.875l4.514-2.709-1.029-1.715-4.529 2.718-4.956-2.478-.001-5.765 5.448-2.723-.894-1.789-4.554 2.276.001-3.8 5.961-3.406 5.039 3.344v4.961l-5.553 3.687 1.106 1.666 5.403-3.588 4.044 3.235v5.182l-4.61 3.545 1.219 1.585 11.392-8.762v16.39l-5.983 3.417Zm33.476-32.705-6.494-3.711V22a.997.997 0 0 0-.446-.832l-12-8a1.001 1.001 0 0 0-1.054-.034l-6.498 3.75-6.502-3.75a.996.996 0 0 0-1.004.002l-12 7a.998.998 0 0 0-.496.864v8.42l-6.496 3.711a.997.997 0 0 0-.504.868v.417L13 34.48v10.884l.002.06V47c0 .38.214.725.553.894l5.447 2.724V59c0 .347.179.67.475.851l13 8a1.002 1.002 0 0 0 1.021.017l6.505-3.716 6.503 3.716c.315.181.707.174 1.02-.017l13-8a.999.999 0 0 0 .476-.85v-8.383l5.445-2.724A.998.998 0 0 0 67 47V34a1 1 0 0 0-.504-.868Z"/></g></svg>
